weather-lightning-rainy.svg

<svg fill="currentColor" viewBox="0 0 24 24"><path d="M4.5 13.59c.5.28.64.91.37 1.37-.28.48-.87.64-1.37.37A4.98 4.98 0 0 1 1 11a5 5 0 0 1 5-5c1-2.35 3.3-4 6-4 3.43 0 6.24 2.66 6.5 6.03L19 8a4 4 0 0 1 4 4 4 4 0 0 1-4 4 1 1 0 0 1-1-1 1 1 0 0 1 1-1 2 2 0 0 0 2-2 2 2 0 0 0-2-2h-2V9a5 5 0 0 0-5-5C9.5 4 7.45 5.82 7.06 8.19 6.73 8.07 6.37 8 6 8a3 3 0 0 0-3 3c0 1.11.6 2.08 1.5 2.6zm5-2.59h3l-2 4h2l-3.75 7 .75-5H7zm8 7.67c0 1.29-1 2.33-2.25 2.33S13 19.96 13 18.67c0-1.55 2.25-4.17 2.25-4.17s2.25 2.62 2.25 4.17"/></svg>

<svg  viewBox="0 0 24 24" fill="currentColor"><path  d="M4.5,13.59C5,13.87 5.14,14.5 4.87,14.96C4.59,15.44 4,15.6 3.5,15.33V15.33C2,14.47 1,12.85 1,11A5,5 0 0,1 6,6C7,3.65 9.3,2 12,2C15.43,2 18.24,4.66 18.5,8.03L19,8A4,4 0 0,1 23,12A4,4 0 0,1 19,16A1,1 0 0,1 18,15A1,1 0 0,1 19,14A2,2 0 0,0 21,12A2,2 0 0,0 19,10H17V9A5,5 0 0,0 12,4C9.5,4 7.45,5.82 7.06,8.19C6.73,8.07 6.37,8 6,8A3,3 0 0,0 3,11C3,12.11 3.6,13.08 4.5,13.6V13.59M9.5,11H12.5L10.5,15H12.5L8.75,22L9.5,17H7L9.5,11M17.5,18.67C17.5,19.96 16.5,21 15.25,21C14,21 13,19.96 13,18.67C13,17.12 15.25,14.5 15.25,14.5C15.25,14.5 17.5,17.12 17.5,18.67Z"/></svg>
